img/icon-updated.svg

<svg fill="none" height="16" viewBox="0 0 16 16" width="16" xmlns="http://www.w3.org/2000/svg"><path clip-rule="evenodd" d="m1.5 8c0-1.72391.68482-3.37721 1.90381-4.59619 1.21898-1.21899 2.87228-1.90381 4.59619-1.90381s3.3772.68482 4.5962 1.90381c1.219 1.21898 1.9038 2.87228 1.9038 4.59619s-.6848 3.3772-1.9038 4.5962-2.87229 1.9038-4.5962 1.9038-3.37721-.6848-4.59619-1.9038c-1.21899-1.219-1.90381-2.87229-1.90381-4.5962zm6.5-8c-2.12173 0-4.15656.842855-5.65685 2.34315-1.500295 1.50029-2.34315 3.53512-2.34315 5.65685 0 2.1217.842855 4.1566 2.34315 5.6569 1.50029 1.5002 3.53512 2.3431 5.65685 2.3431 2.1217 0 4.1566-.8429 5.6569-2.3431 1.5002-1.5003 2.3431-3.5352 2.3431-5.6569 0-2.12173-.8429-4.15656-2.3431-5.65685-1.5003-1.500295-3.5352-2.34315-5.6569-2.34315zm.5 4.75c0-.19891-.07902-.38968-.21967-.53033s-.33142-.21967-.53033-.21967-.38968.07902-.53033.21967-.21967.33142-.21967.53033v3.5c.00003.14978.04492.29612.12886.42017.08395.12404.20311.22011.34214.27583l2.5 1c.1831.0669.3851.0598.5631-.01967.178-.07949.3181-.22518.3905-.40619.0724-.181.0715-.38309-.0025-.56345-.074-.18035-.2154-.32478-.3941-.40269l-2.028-.812z" fill="#000" fill-rule="evenodd"/></svg>

<svg width="16" height="16" viewBox="0 0 16 16" fill="none" xmlns="http://www.w3.org/2000/svg">
<path fill-rule="evenodd" clip-rule="evenodd" d="M1.5 8C1.5 6.27609 2.18482 4.62279 3.40381 3.40381C4.62279 2.18482 6.27609 1.5 8 1.5C9.72391 1.5 11.3772 2.18482 12.5962 3.40381C13.8152 4.62279 14.5 6.27609 14.5 8C14.5 9.72391 13.8152 11.3772 12.5962 12.5962C11.3772 13.8152 9.72391 14.5 8 14.5C6.27609 14.5 4.62279 13.8152 3.40381 12.5962C2.18482 11.3772 1.5 9.72391 1.5 8ZM8 0C5.87827 0 3.84344 0.842855 2.34315 2.34315C0.842855 3.84344 0 5.87827 0 8C0 10.1217 0.842855 12.1566 2.34315 13.6569C3.84344 15.1571 5.87827 16 8 16C10.1217 16 12.1566 15.1571 13.6569 13.6569C15.1571 12.1566 16 10.1217 16 8C16 5.87827 15.1571 3.84344 13.6569 2.34315C12.1566 0.842855 10.1217 0 8 0V0ZM8.5 4.75C8.5 4.55109 8.42098 4.36032 8.28033 4.21967C8.13968 4.07902 7.94891 4 7.75 4C7.55109 4 7.36032 4.07902 7.21967 4.21967C7.07902 4.36032 7 4.55109 7 4.75V8.25C7.00003 8.39978 7.04492 8.54612 7.12886 8.67017C7.21281 8.79421 7.33197 8.89028 7.471 8.946L9.971 9.946C10.1541 10.0129 10.3561 10.0058 10.5341 9.92633C10.7121 9.84684 10.8522 9.70115 10.9246 9.52014C10.997 9.33914 10.9961 9.13705 10.9221 8.95669C10.8481 8.77634 10.7067 8.63191 10.528 8.554L8.5 7.742V4.75Z" fill="black"/>
</svg>
